other/solitairecg.svg

<?xml version="1.0" encoding="UTF-8" standalone="no"?>
<svg
   xmlns:dc="http://purl.org/dc/elements/1.1/"
   xmlns:cc="http://creativecommons.org/ns#"
   xmlns:rdf="http://www.w3.org/1999/02/22-rdf-syntax-ns#"
   xmlns:svg="http://www.w3.org/2000/svg"
   xmlns="http://www.w3.org/2000/svg"
   id="svg3847"
   version="1.1"
   viewBox="0 0 48 48"
   height="48"
   width="48">
  <metadata
     id="metadata3853">
    <rdf:RDF>
      <cc:Work
         rdf:about="">
        <dc:format>image/svg+xml</dc:format>
        <dc:type
           rdf:resource="http://purl.org/dc/dcmitype/StillImage" />
        <dc:title></dc:title>
      </cc:Work>
    </rdf:RDF>
  </metadata>
  <defs
     id="defs3851">
    <style
       id="style3930">.cls-1{fill:#fff;}</style>
  </defs>
  <path
     style="fill:#ffffff"
     id="rect3845"
     d="M 10 4 C 8.892 4 8 4.892 8 6 L 8 42 C 8 43.108 8.892 44 10 44 L 38 44 C 39.108 44 40 43.108 40 42 L 40 6 C 40 4.892 39.108 4 38 4 L 10 4 z M 12.445312 6 L 13.419922 6 L 15.912109 11.494141 L 14.888672 11.494141 L 14.287109 10.144531 L 11.572266 10.144531 L 10.972656 11.494141 L 10 11.494141 L 12.445312 6 z M 12.931641 7.09375 L 11.912109 9.3808594 L 13.949219 9.3808594 L 12.931641 7.09375 z M 20.099609 17.210938 C 21.997017 17.212912 23.631968 18.549585 24.013672 20.408203 C 24.435401 18.599287 26.046872 17.318706 27.904297 17.316406 C 30.113436 17.316406 31.904297 19.107267 31.904297 21.316406 C 31.902449 22.62341 31.061423 23.722054 30.189453 24.59375 L 23.992188 30.789062 L 17.021484 23.818359 C 16.481298 23.278173 16.139869 22.20289 16.099609 21.210938 C 16.010032 19.003615 17.89047 17.210938 20.099609 17.210938 z M 32.052734 36.505859 L 33.078125 36.505859 L 33.677734 37.855469 L 36.392578 37.855469 L 36.994141 36.505859 L 37.964844 36.505859 L 35.519531 42 L 34.546875 42 L 32.052734 36.505859 z M 34.017578 38.619141 L 35.033203 40.90625 L 36.052734 38.619141 L 34.017578 38.619141 z " />
</svg>

<?xml version="1.0" encoding="UTF-8"?>
<svg version="1.1" viewBox="0 0 48 48" xmlns="http://www.w3.org/2000/svg">
    <defs>
        <style>.cls-1{fill:#fff;}</style>
    </defs>
    <path d="m10 4c-1.108 0-2 0.892-2 2v36c0 1.108 0.892 2 2 2h28c1.108 0 2-0.892 2-2v-36c0-1.108-0.892-2-2-2h-28zm2.4453 2h0.97461l2.4922 5.4941h-1.0234l-0.60156-1.3496h-2.7148l-0.59961 1.3496h-0.97266l2.4453-5.4941zm0.48633 1.0938-1.0195 2.2871h2.0371l-1.0176-2.2871zm11.18 7.9766c0.6479 0.79805 2.367 3.1468 5.1172 6.1641 5.2743 5.494 0.21813 10.254-4.5352 7.5234 0.044925 1.486 1.2738 2.9039 2.0098 4.1895h-5.0254c0.71459-1.3227 1.875-2.7078 1.8496-4.1895-4.6557 2.8723-10.383-1.5075-4.4941-7.5234 2.9121-3.0969 4.4871-5.3859 5.0781-6.1641zm7.9414 21.436h1.0254l0.59961 1.3496h2.7148l0.60156-1.3496h0.9707l-2.4453 5.4941h-0.97266l-2.4941-5.4941zm1.9648 2.1133 1.0156 2.2871 1.0195-2.2871h-2.0352z" fill="#fff"/>
</svg>
